X: 143
T:Richard Dwyer's
M:4/4
L:1/8
R:Reel
Z:Chris Corrigan
K:ADor
|:A2 EA cdec|dBGB AEGF|EAcA Bdgf|eaag abag|
e=fed cA A2|g2 dc BdcB|AEcE dEcd|ecBG EA A2:|
|:a2 ea c'aea| g2 dg bgdg|aged cded|(3cBA BG EA A2|
a2 ea c'aea|gage dBGB|ABcd eaaf|gedg eA A2:|
<end>
<start>
